!!!COM: Anonymous
!!!OPR: Missa L'ardant desir
!!!ONM: 4
!!!OTL: Sanctus
!!!AGN: Mass; Sanctus
!!!SCT: Ano1025d
!!!SCA: Ano1025d
!!!SMS: Capella Sistina 51
!!!folio-OPR: 90v-104r
!!!folio:
!!!voices: 4
**kern	**text	**kern	**text	**kern	**text	**kern	**text
*staff4	*staff4	*staff3	*staff3	*staff2	*staff2	*staff1	*staff1
*Ivox	*	*Ivox	*	*Ivox	*	*Ivox	*
*I"Bassus	*	*I"Tenor	*	*I"Altus	*	*I"Discantus	*
*I'B	*	*I'T	*	*I'A	*	*I'D	*
*>[A,B,C,D,E]	*>[A,B,C,D,E]	*>[A,B,C,D,E]	*>[A,B,C,D,E]	*>[A,B,C,D,E]	*>[A,B,C,D,E]	*>[A,B,C,D,E]	*>[A,B,C,D,E]
*>A	*>A	*>A	*>A	*>A	*>A	*>A	*>A
*clefF4	*	*clefGv2	*	*clefGv2	*	*clefG2	*
*k[]	*	*k[]	*	*k[]	*	*k[]	*
*M3/1	*	*M3/1	*	*M3/1	*	*M3/1	*
*met(O)	*	*met(O)	*	*met(O)	*	*met(O)	*
*MM300	*	*MM300	*	*MM300	*	*MM300	*
!!section: Sanctus
!!!OMD: Sanctus
=1-	=1-	=1-	=1-	=1-	=1-	=1-	=1-
!	!	!LO:TX:X=-30:Z=8:t=T under C-dot (twofold aug.)	!	!	!	!	!
0.r	.	0.r	.	0.A	Sanc-	[0.a	Sanc-
=2	=2	=2	=2	=2	=2	=2	=2
0.r	.	0.r	.	0.c	.	1a]	.
.	.	.	.	.	.	0e	.
=3	=3	=3	=3	=3	=3	=3	=3
0.r	.	0.r	.	0.d	-tus,	1d	-tus,
.	.	.	.	.	.	1.f	sanc-
.	.	.	.	.	.	4e	.
.	.	.	.	.	.	4d	.
=4	=4	=4	=4	=4	=4	=4	=4
0.r	.	0.r	.	1.c	sanc-	1e	.
.	.	.	.	.	.	1.A	.
.	.	.	.	2d	.	.	.
.	.	.	.	1e	.	.	.
.	.	.	.	.	.	2B	.
=5	=5	=5	=5	=5	=5	=5	=5
0.r	.	0.r	.	1.A	.	2c	.
.	.	.	.	.	.	2d	.
.	.	.	.	.	.	1.e	.
.	.	.	.	2B	.	.	.
.	.	.	.	2c	.	.	.
.	.	.	.	2d	.	2f	.
=6	=6	=6	=6	=6	=6	=6	=6
0.r	.	0.r	.	2e	.	2g	.
.	.	.	.	2f	.	0a	.
.	.	.	.	2.d	.	.	.
.	.	.	.	4c	.	.	.
.	.	.	.	2d	.	.	.
.	.	.	.	2B	.	4g	.
.	.	.	.	.	.	4f	.
=7	=7	=7	=7	=7	=7	=7	=7
0.r	.	0.r	.	2c	.	2e	.
.	.	.	.	1d	.	2d	.
.	.	.	.	.	.	2f	.
.	.	.	.	2e	.	2g	.
.	.	.	.	1c#i	.	1e	.
=8	=8	=8	=8	=8	=8	=8	=8
0.r	.	0.r	.	0d	-tus,	1d	-tus,
.	.	.	.	.	.	1r	.
.	.	.	.	1r	.	1a	sanc-
=9	=9	=9	=9	=9	=9	=9	=9
0.r	.	0.r	.	0.d	sanc-	1a	.
.	.	.	.	.	.	1.b-i	.
.	.	.	.	.	.	2a	.
=10	=10	=10	=10	=10	=10	=10	=10
0.r	.	0.r	.	1c	.	0a	-tus,
.	.	.	.	1d	.	.	.
.	.	.	.	1B-i	.	1g	sanc-
=11	=11	=11	=11	=11	=11	=11	=11
0.r	.	0.r	.	0A	.	2f	.
.	.	.	.	.	.	2.a	.
.	.	.	.	.	.	4g	.
.	.	.	.	.	.	2f	.
.	.	.	.	1G	.	2e	.
.	.	.	.	.	.	[2d	.
=12	=12	=12	=12	=12	=12	=12	=12
0.r	.	0.r	.	2F	.	4d]	.
.	.	.	.	.	.	4c	.
.	.	.	.	2G	.	2B	.
.	.	.	.	1D	.	2A	.
.	.	.	.	.	.	1d	.
.	.	.	.	1E	.	.	.
.	.	.	.	.	.	2c#i	.
=13	=13	=13	=13	=13	=13	=13	=13
0D	Sanc-	0.A	Sanc-	1.F	.	1d	-tus,
.	.	.	.	.	.	1r	.
.	.	.	.	2D	.	.	.
[1F	.	.	.	1D	-tus,	[1a	sanc-
=14	=14	=14	=14	=14	=14	=14	=14
1F]	.	0.c	.	1r	.	1a]	.
0E	.	.	.	0G	sanc-	0g	.
=15	=15	=15	=15	=15	=15	=15	=15
0.D	.	0.d	.	1A	.	2f	.
.	.	.	.	.	.	1a	.
.	.	.	.	2.F	.	.	.
.	.	.	.	.	.	2e	.
.	.	.	.	4G	.	.	.
.	.	.	.	4A	.	2.f	.
.	.	.	.	4B-i	.	.	.
!	!	!	!	!LO:TX:X=-24:Z=28:t=MS&colon; b m	!	!	!
.	.	.	.	[2A	.	.	.
.	.	.	.	.	.	4g	.
=16	=16	=16	=16	=16	=16	=16	=16
0AA	-tus,	0c	-tus,	2A]	.	1e	.
.	.	.	.	4G	.	.	.
.	.	.	.	4F	.	.	.
.	.	.	.	1E	-tus,	0A	-tus,
[1D	.	1d	sanc-	2D	sanc-	.	.
.	.	.	.	[2A	.	.	.
=17	=17	=17	=17	=17	=17	=17	=17
1D]	.	1f	.	2A]	.	1.a	sanc-
.	.	.	.	2B	.	.	.
1C	sanc-	1e	.	1c	.	.	.
.	.	.	.	.	.	2g	.
1D	.	1d	.	[1A	.	2f	.
.	.	.	.	.	.	2e	.
=18	=18	=18	=18	=18	=18	=18	=18
0.F	.	0.A	tus,	2A]	.	1d	.
.	.	.	.	1f	.	.	.
.	.	.	.	.	.	1c	.
.	.	.	.	2e	.	.	.
.	.	.	.	2d	.	[1f	.
.	.	.	.	2c	.	.	.
=19	=19	=19	=19	=19	=19	=19	=19
0.A	.	0.c	sanc-	1.f	.	2f]	.
.	.	.	.	.	.	2.a	.
.	.	.	.	.	.	4b	.
.	.	.	.	2e	.	1cc	.
.	.	.	.	1e	.	.	.
.	.	.	.	.	.	2a	.
=20	=20	=20	=20	=20	=20	=20	=20
0.B-i	.	0.d	.	1d	.	2g	.
.	.	.	.	.	.	2.b-i	.
.	.	.	.	0G	.	.	.
.	.	.	.	.	.	4a	.
.	.	.	.	.	.	4g	.
.	.	.	.	.	.	4f	.
.	.	.	.	.	.	1g	.
=21	=21	=21	=21	=21	=21	=21	=21
1A	-tus,	0.e	-tus	1c	-tus	1a	-tus
1G	.	.	.	1B	.	1r	.
1A	.	.	.	1c	.	[1a	do-
=22	=22	=22	=22	=22	=22	=22	=22
1D	.	0.d	do-	1d	do-	0a]	.
1r	.	.	.	0f	-mi-	.	.
1D	do-	.	.	.	.	2b-i	.
.	.	.	.	.	.	[2a	.
=23	=23	=23	=23	=23	=23	=23	=23
1E	.	0.c	.	1e	-nus,	2a]	.
.	.	.	.	.	.	2g	.
0F	.	.	.	0A	.	2f	.
.	.	.	.	.	.	2g	.
.	.	.	.	.	.	1a	.
=24	=24	=24	=24	=24	=24	=24	=24
[0.G	-mi-	[0.B-i	.	1r	.	1d	.
.	.	.	.	0d	do-	1.g	.
.	.	.	.	.	.	2a	.
=25	=25	=25	=25	=25	=25	=25	=25
0.G]	.	0.B-i]	.	0d	.	1.b-i	.
.	.	.	.	.	.	2a	.
.	.	.	.	1e	.	1g	.
=26	=26	=26	=26	=26	=26	=26	=26
1D	-nus,	[0.A	-mi-	1d	.	1f	.
1r	.	.	.	1c	.	1e	.
[1D	do-	.	.	1d	.	2f	.
.	.	.	.	.	.	2d	.
=27	=27	=27	=27	=27	=27	=27	=27
1D]	.	0.A]	.	1f	.	1.d	.
0AA	-mi-	.	.	0e	-mi-	.	.
.	.	.	.	.	.	2B	.
.	.	.	.	.	.	1c#i	-mi-
=28	=28	=28	=28	=28	=28	=28	=28
1.F	-nus	[0.D	-nus	0.d	-nus,	1d	-nus,
.	.	.	.	.	.	1A	.
2G	.	.	.	.	.	.	.
1A	.	.	.	.	.	1r	.
=29	=29	=29	=29	=29	=29	=29	=29
1B-i	de-	0.D]	.	2r	.	1.d	do-
.	.	.	.	1F	do-	.	.
1A	.	.	.	.	.	.	.
.	.	.	.	2G	.	2e	.
[1D	.	.	.	2A	.	2f	.
.	.	.	.	2B-i	.	2g	.
=30	=30	=30	=30	=30	=30	=30	=30
2D]	.	0.d	de-	1A	.	0a	.
2E	.	.	.	.	.	.	.
1F	.	.	.	1D	.	.	.
[1G	.	.	.	[1B-i	.	[1g	.
=31	=31	=31	=31	=31	=31	=31	=31
1G]	.	0.e	.	1B-]	.	0.g]	.
0E	.	.	.	0c	-mi-	.	.
=32	=32	=32	=32	=32	=32	=32	=32
[0.D	.	[0.A	.	0d	-nus	1f	-mi-
.	.	.	.	.	.	1.a	-nus
.	.	.	.	[1A	de-	.	.
.	.	.	.	.	.	2d	.
=33	=33	=33	=33	=33	=33	=33	=33
0.D]	.	0.A]	.	1A]	.	1d	.
.	.	.	.	0F	.	1.f	de-
.	.	.	.	.	.	2e	.
=34	=34	=34	=34	=34	=34	=34	=34
0.AA	-us	0.A	-us	2.E	.	2c	.
.	.	.	.	.	.	2d	.
.	.	.	.	4D	.	.	.
.	.	.	.	2C	.	0e	.
.	.	.	.	2D	.	.	.
.	.	.	.	1E	.	.	.
=35	=35	=35	=35	=35	=35	=35	=35
0.r	.	0.d	.	0.D	-us	0.A	-us
=36	=36	=36	=36	=36	=36	=36	=36
0.AA	sa-	0.A	sa-	0E	sa-	1r	.
.	.	.	.	.	.	0c	sa-
.	.	.	.	2.E	.	.	.
.	.	.	.	4F	.	.	.
=37	=37	=37	=37	=37	=37	=37	=37
1GG	.	0.B-i	.	1G	.	0.d	.
0D	.	.	.	1D	.	.	.
.	.	.	.	1F	.	.	.
=38	=38	=38	=38	=38	=38	=38	=38
0AA	.	0.A	-ba-	0E	-ba-	0c	-ba-
2.AA	-ba-	.	.	[1c	.	[1e	.
4BB	.	.	.	.	.	.	.
=39	=39	=39	=39	=39	=39	=39	=39
2C	.	0.G	-oth,	2c]	.	1e]	.
2D	.	.	.	2B	.	.	.
2E	.	.	.	2c	.	0g	.
2F	.	.	.	2d	.	.	.
2G	.	.	.	2B	.	.	.
2E	.	.	.	2c	.	.	.
=40	=40	=40	=40	=40	=40	=40	=40
1.F	.	[0.F	sa-	1.A	.	1a	.
.	.	.	.	.	.	1.d	.
2BB-	.	.	.	1B-i	.	.	.
1BB-i	-oth,	.	.	.	.	.	.
.	.	.	.	2A	.	2c	.
=41	=41	=41	=41	=41	=41	=41	=41
2r	.	0.F]	.	1A	-oth,	1c	-oth,
1F	sa-	.	.	.	.	.	.
.	.	.	.	0c	sa-	1.f	sa-
2G	.	.	.	.	.	.	.
2A	.	.	.	.	.	.	.
2Bni	.	.	.	.	.	2g	.
=42	=42	=42	=42	=42	=42	=42	=42
0c	.	[0.F	-ba-	1.f	-ba-	2a	.
.	.	.	.	.	.	2b	.
.	.	.	.	.	.	1.cc	.
.	.	.	.	2e	.	.	.
1A	.	.	.	2c	.	.	.
.	.	.	.	2d	.	[2a	-ba-
=43	=43	=43	=43	=43	=43	=43	=43
1F	.	0.F]	.	2c	.	2a]	.
.	.	.	.	1A	.	1f	.
0D	-ba-	.	.	.	.	.	.
.	.	.	.	2c	.	2d	.
.	.	.	.	2B	.	1f	.
.	.	.	.	2A	.	.	.
=44	=44	=44	=44	=44	=44	=44	=44
1.C	-oth,	[0.G	oth,	1c	.	1e	-oth,
.	.	.	.	1G	.	2c	sa-
2E	sa-	.	.	.	.	2.g	.
2C	.	.	.	1E	.	.	.
.	.	.	.	.	.	4f	.
[2G	.	.	.	.	.	[2e	.
=45	=45	=45	=45	=45	=45	=45	=45
4G]	.	0.G]	.	1C	-oth,	4e]	.
4F	.	.	.	.	.	4d	.
2.E	.	.	.	.	.	2c	.
.	.	.	.	2r	.	2B	.
4D	.	.	.	.	.	.	.
2C	.	.	.	2C	sa-	2.e	.
2BB	.	.	.	2D	.	.	.
.	.	.	.	.	.	4d	.
2C	.	.	.	2E	.	4c	.
.	.	.	.	.	.	4B	.
=46	=46	=46	=46	=46	=46	=46	=46
2D	.	0.F	sa-	1F	.	2A	.
1A	.	.	.	.	.	1f	.
.	.	.	.	1C	.	.	.
2G	.	.	.	.	.	2e	.
2F	.	.	.	2.A	.	2d	.
4E	.	.	.	.	.	4c	.
4D	.	.	.	4B	.	4d	.
=47	=47	=47	=47	=47	=47	=47	=47
!	!	!	!	!	!	!LO:TX:X=-5:Z=8:t=MS&colon; g'-f'-e'-d'	!
2C	.	0.E	-ba-	2.c	.	2.e	.
2GG	.	.	.	.	.	.	.
.	.	.	.	4B	.	4d	.
2C	-ba-	.	.	1G	.	4c	.
.	.	.	.	.	.	4B	.
2BB	.	.	.	.	.	1d	.
1AA	-oth,	.	.	1A	.	.	.
.	.	.	.	.	.	2c#i	ba-
=48	=48	=48	=48	=48	=48	=48	=48
2r	.	[0.Dl	-oth.	1F	.	[0.dl	-oth.
2D	sa-	.	.	.	.	.	.
2.BB-i	-ba-	.	.	1.B-i	-ba-	.	.
4C	.	.	.	.	.	.	.
1D	.	.	.	.	.	.	.
.	.	.	.	2A	.	.	.
=49	=49	=49	=49	=49	=49	=49	=49
0.Dl	-oth.	0.D]	.	0.Al	-oth.	0.d]	.
!!LO:LB:i:g=z
=50||	=50||	=50||	=50||	=50||	=50||	=50||	=50||
*>B	*>B	*>B	*>B	*>B	*>B	*>B	*>B
*clefF4	*	*clefGv2	*	*clefGv2	*	*clefG2	*
*k[]	*	*k[]	*	*k[]	*	*k[]	*
*M3/1	*	*M3/1	*	*M3/1	*	*M3/1	*
*met(O)	*	*met(O)	*	*met(O)	*	*met(O)	*
!!section: Pleni sunt celi
!!!OMD: Pleni sunt celi
0.r	.	0.r	.	0.d	Ple-	0d	Ple-
.	.	.	.	.	.	[1f	.
=51	=51	=51	=51	=51	=51	=51	=51
0.r	.	0.r	.	1.A	.	1f]	.
.	.	.	.	.	.	0e	.
.	.	.	.	2B	.	.	.
.	.	.	.	2c	.	.	.
.	.	.	.	4d	.	.	.
.	.	.	.	4e	.	.	.
=52	=52	=52	=52	=52	=52	=52	=52
0.r	.	0.r	.	1.f	.	2d	.
.	.	.	.	.	.	1a	.
.	.	.	.	2e	.	2g	.
.	.	.	.	2d	.	2f	.
.	.	.	.	4c	.	4e	.
.	.	.	.	4B	.	4d	.
=53	=53	=53	=53	=53	=53	=53	=53
0.r	.	0.r	.	2.A	.	2f	.
.	.	.	.	.	.	1e	.
.	.	.	.	4B	.	.	.
.	.	.	.	2c	.	.	.
.	.	.	.	1d	.	2d	.
.	.	.	.	.	.	1e	.
.	.	.	.	2c	.	.	.
=54	=54	=54	=54	=54	=54	=54	=54
0.r	.	0.r	.	2d	.	1d	-ni
.	.	.	.	2e	.	.	.
.	.	.	.	1.f	.	1r	.
.	.	.	.	.	.	[1A	sunt
.	.	.	.	[2e	.	.	.
=55	=55	=55	=55	=55	=55	=55	=55
0.r	.	0.r	.	2e]	.	1A]	.
.	.	.	.	2c	.	.	.
.	.	.	.	2.d	.	1B	.
.	.	.	.	4c	.	.	.
.	.	.	.	1A	-ni	1c	.
=56	=56	=56	=56	=56	=56	=56	=56
0.r	.	0.r	.	2r	.	1d	.
.	.	.	.	2B	sunt	.	.
.	.	.	.	2c	.	1e	.
.	.	.	.	2.A	.	.	.
.	.	.	.	.	.	1A	.
.	.	.	.	4B	.	.	.
.	.	.	.	2c	.	.	.
=57	=57	=57	=57	=57	=57	=57	=57
0.r	.	0.r	.	1d	ce-	2r	.
.	.	.	.	.	.	2f	ce-
.	.	.	.	1A	.	2e	.
.	.	.	.	.	.	1a	.
.	.	.	.	1B-i	.	.	.
.	.	.	.	.	.	2g	.
=58	=58	=58	=58	=58	=58	=58	=58
0.r	.	0.r	.	1A	.	2a	.
.	.	.	.	.	.	2cc	.
.	.	.	.	2G	.	2b	.
.	.	.	.	2A	.	1a	.
.	.	.	.	2c	.	.	.
.	.	.	.	2B	.	2g	.
=59	=59	=59	=59	=59	=59	=59	=59
0.r	.	0.r	.	1A	.	2f	.
.	.	.	.	.	.	2.e	.
.	.	.	.	2G	.	.	.
.	.	.	.	.	.	4f	.
.	.	.	.	2F	.	2d	.
.	.	.	.	2.E	.	2.c	.
.	.	.	.	4F	.	4d	.
=60	=60	=60	=60	=60	=60	=60	=60
0.r	.	0.r	.	2D	.	2f	.
.	.	.	.	2.C	.	2e	.
.	.	.	.	.	.	1a	-li,
.	.	.	.	4D	.	.	.
.	.	.	.	2F	.	.	.
.	.	.	.	2E	.	2g	ce-
.	.	.	.	[2A	.	2e	.
=61	=61	=61	=61	=61	=61	=61	=61
0.r	.	0.r	.	2A]	.	2f	.
.	.	.	.	2G	.	1e	.
.	.	.	.	2E	.	.	.
.	.	.	.	2F	.	2d	.
.	.	.	.	1E	-li,	2e	.
.	.	.	.	.	.	2c	.
=62	=62	=62	=62	=62	=62	=62	=62
0.r	.	0.r	.	2D	ce-	2f	.
.	.	.	.	2E	.	2.e	.
.	.	.	.	2C	.	.	.
.	.	.	.	.	.	4d	.
.	.	.	.	2F	.	2d	.
.	.	.	.	1E	.	2c	.
.	.	.	.	.	.	2g	.
=63	=63	=63	=63	=63	=63	=63	=63
0.r	.	0.r	.	2D	.	2f	.
.	.	.	.	2C	.	2.e	.
.	.	.	.	2G	.	.	.
.	.	.	.	.	.	4d	.
.	.	.	.	2F	.	1d	.
.	.	.	.	1E	.	.	.
.	.	.	.	.	.	2c#i	.
=64	=64	=64	=64	=64	=64	=64	=64
0.r	.	0.r	.	0D	-li	1d	-li
.	.	.	.	.	.	1r	.
.	.	.	.	1r	.	1a	et
=65	=65	=65	=65	=65	=65	=65	=65
0.r	.	0.r	.	0.d	et	1a	ter-
.	.	.	.	.	.	1.b	.
.	.	.	.	.	.	4a	.
.	.	.	.	.	.	4b	.
=66	=66	=66	=66	=66	=66	=66	=66
0.r	.	0.r	.	1A	ter-	1cc	.
.	.	.	.	0d	.	2b	.
.	.	.	.	.	.	1a	.
.	.	.	.	.	.	4g	.
.	.	.	.	.	.	4f	.
=67	=67	=67	=67	=67	=67	=67	=67
0.r	.	0.r	.	1c	.	2.e	.
.	.	.	.	.	.	4f	.
.	.	.	.	0B-	.	2g	.
.	.	.	.	.	.	2f	.
.	.	.	.	.	.	1d	.
=68	=68	=68	=68	=68	=68	=68	=68
0.r	.	0.r	.	[0.A	-ra,	0c	-ra,
.	.	.	.	.	.	1f	et
=69	=69	=69	=69	=69	=69	=69	=69
0.r	.	0.r	.	1A]	.	1f	ter-
.	.	.	.	1.B-i	et	0g	.
.	.	.	.	2A	.	.	.
=70	=70	=70	=70	=70	=70	=70	=70
0.r	.	0.r	.	0F	.	1.a	.
.	.	.	.	.	.	2.cc	.
.	.	.	.	2.c	ter-	.	.
.	.	.	.	.	.	4b	.
.	.	.	.	.	.	2a	.
.	.	.	.	4d	.	.	.
=71	=71	=71	=71	=71	=71	=71	=71
0.r	.	0.r	.	2e	.	2g	.
.	.	.	.	1f	.	2a	.
.	.	.	.	.	.	2d	.
.	.	.	.	1d	.	2f	.
.	.	.	.	.	.	1e	-ra,
.	.	.	.	2c#i	.	.	.
=72	=72	=72	=72	=72	=72	=72	=72
0.r	.	0.r	.	1d	-ra,	2r	.
.	.	.	.	.	.	1a	glo-
.	.	.	.	2r	.	.	.
.	.	.	.	1d	glo-	2b-i	.
.	.	.	.	.	.	2a	.
.	.	.	.	2e	.	2g	.
=73	=73	=73	=73	=73	=73	=73	=73
0.r	.	0.r	.	2d	.	1.a	.
.	.	.	.	2c	.	.	.
.	.	.	.	1.d	.	.	.
.	.	.	.	.	.	1f	.
.	.	.	.	[2B	.	2d	.
=74	=74	=74	=74	=74	=74	=74	=74
0.r	.	0.r	.	2B]	.	1.d	.
.	.	.	.	2G	.	.	.
.	.	.	.	1.G	.	.	.
.	.	.	.	.	.	4e	.
.	.	.	.	.	.	4f	.
.	.	.	.	.	.	[1g	.
.	.	.	.	4A	.	.	.
.	.	.	.	4B	.	.	.
=75	=75	=75	=75	=75	=75	=75	=75
0.r	.	0.r	.	1.c	.	2g]	.
.	.	.	.	.	.	2e	-ri-
.	.	.	.	.	.	1.e	-a
.	.	.	.	2A	-ri-	.	.
.	.	.	.	[1A	-a	.	.
.	.	.	.	.	.	2f	.
=76	=76	=76	=76	=76	=76	=76	=76
0.r	.	0.r	.	2A]	.	2e	.
.	.	.	.	2B	.	2d	.
.	.	.	.	2A	.	2f	.
.	.	.	.	2G	.	2.e	tu-
.	.	.	.	2A	.	.	.
.	.	.	.	.	.	4d	.
.	.	.	.	[2A	tu-	4c	.
.	.	.	.	.	.	4B	.
=77	=77	=77	=77	=77	=77	=77	=77
0.r	.	0.r	.	4A]	.	1A	-a,
.	.	.	.	4G	.	.	.
.	.	.	.	4F	.	.	.
.	.	.	.	4E	.	.	.
.	.	.	.	1D	-a,	2r	.
.	.	.	.	.	.	1.a	glo-
.	.	.	.	2r	.	.	.
.	.	.	.	[2d	glo-	.	.
=78	=78	=78	=78	=78	=78	=78	=78
0.r	.	0.r	.	2d]	.	2f	-ri-
.	.	.	.	2B	-ri-	2g	-a
.	.	.	.	2c	-a	2r	.
.	.	.	.	2r	.	1a	tu-
.	.	.	.	1d	tu-	.	.
.	.	.	.	.	.	2f	.
=79	=79	=79	=79	=79	=79	=79	=79
0.r	.	0.r	.	2B	.	2g	.
.	.	.	.	2c	.	2a	-a,
.	.	.	.	2d	-a,	2r	.
.	.	.	.	2r	.	1a	glo-
.	.	.	.	1d	glo-	.	.
.	.	.	.	.	.	2f	.
=80	=80	=80	=80	=80	=80	=80	=80
0.r	.	0.r	.	2B	.	2g	.
.	.	.	.	2c	.	2a	.
.	.	.	.	2d	.	2b-i	-ri-
.	.	.	.	2e	-ri-	2g	-a
.	.	.	.	2c	-a	2r	.
.	.	.	.	2r	.	[2a	tu-
=81	=81	=81	=81	=81	=81	=81	=81
0.r	.	0.r	.	1d	tu-	2a]	.
.	.	.	.	.	.	2f	.
.	.	.	.	2B	.	2g	.
.	.	.	.	2c	.	2a	.
.	.	.	.	2d	.	2b-i	.
.	.	.	.	2e	.	2g	.
=82	=82	=82	=82	=82	=82	=82	=82
0.r	.	0.r	.	2c	.	2a	-a,
.	.	.	.	2d	-a,	2r	.
.	.	.	.	2r	.	1a	glo-
.	.	.	.	1d	glo-	.	.
.	.	.	.	.	.	2f	.
.	.	.	.	2B	.	2g	.
=83	=83	=83	=83	=83	=83	=83	=83
0.r	.	0.r	.	2c	.	2a	.
.	.	.	.	2d	.	2b-i	.
.	.	.	.	2e	.	2g	.
.	.	.	.	2c	.	1a	.
.	.	.	.	1d	.	.	.
.	.	.	.	.	.	2d	.
=84	=84	=84	=84	=84	=84	=84	=84
0.r	.	0.r	.	2G	.	2e	.
.	.	.	.	2A	.	2f	-ri-
.	.	.	.	2B	-ri-	2g	-a
.	.	.	.	2c	-a	2r	.
.	.	.	.	2r	.	1a	tu-
.	.	.	.	[2d	tu-	.	.
=85	=85	=85	=85	=85	=85	=85	=85
0.r	.	0.r	.	2d]	.	2f	.
.	.	.	.	2B	.	2g	.
.	.	.	.	2c	.	2a	.
.	.	.	.	2d	.	2b-i	.
.	.	.	.	2e	.	2g	.
.	.	.	.	2c	.	[2a	.
=86	=86	=86	=86	=86	=86	=86	=86
0.r	.	0.r	.	1d	.	2a]	.
.	.	.	.	.	.	2d	.
.	.	.	.	2G	.	2e	.
.	.	.	.	2A	.	2f	.
.	.	.	.	2B	.	2g	.
.	.	.	.	2c	.	[2a	.
=87	=87	=87	=87	=87	=87	=87	=87
0.r	.	0.r	.	2d	.	2a]	.
.	.	.	.	2A	.	2f	.
.	.	.	.	4B	.	4g	.
.	.	.	.	4A	.	4f	.
.	.	.	.	4G	.	4e	.
.	.	.	.	4F	.	4d	.
.	.	.	.	2E	.	1c	.
.	.	.	.	2A	.	.	.
=88	=88	=88	=88	=88	=88	=88	=88
0.r	.	0.r	.	1D	-a,	2d	-a,
.	.	.	.	.	.	1a	glo-
.	.	.	.	1d	glo-	.	.
.	.	.	.	.	.	2f	.
.	.	.	.	2B	.	2g	.
.	.	.	.	2c	.	2a	.
=89	=89	=89	=89	=89	=89	=89	=89
0.r	.	0.r	.	2d	.	2b-i	.
.	.	.	.	2e	.	2g	-ri-
.	.	.	.	2c	-ri-	1a	-a
.	.	.	.	1d	-a	.	.
.	.	.	.	.	.	1d	tu-
.	.	.	.	[2G	tu-	.	.
=90	=90	=90	=90	=90	=90	=90	=90
0.r	.	0.r	.	2G]	.	2e	.
.	.	.	.	2A	.	2f	.
.	.	.	.	2B	.	2g	.
.	.	.	.	2c	.	1a	.
.	.	.	.	2d	.	.	.
.	.	.	.	2A	.	2f	.
=91	=91	=91	=91	=91	=91	=91	=91
0.r	.	0.r	.	4B-i	.	4g	.
.	.	.	.	4A	.	4f	.
.	.	.	.	4G	.	4e	.
.	.	.	.	4F	.	4d	.
.	.	.	.	2G	.	2e	.
.	.	.	.	2D	.	2.d	.
.	.	.	.	1E	.	.	.
.	.	.	.	.	.	4c#i	.
.	.	.	.	.	.	4c#i	.
.	.	.	.	.	.	4B	.
=92	=92	=92	=92	=92	=92	=92	=92
0.r	.	0.r	.	0.Dl	-a.	0.dl	-a.
!!LO:LB:i:g=z
=93||	=93||	=93||	=93||	=93||	=93||	=93||	=93||
*>C	*>C	*>C	*>C	*>C	*>C	*>C	*>C
*clefF4	*	*clefGv2	*	*clefGv2	*	*clefG2	*
*k[]	*	*k[]	*	*k[]	*	*k[]	*
*M2/1	*	*M2/1	*	*M2/1	*	*M2/1	*
*met(O2)	*	*met(O2)	*	*met(O2)	*	*met(O2)	*
*MM400	*	*MM400	*	*MM400	*	*MM400	*
!!section: Osanna I
!!!OMD: Osanna I
!	!	!LO:TX:Z=8:t=T under C (twofold aug.)	!	!	!	!	!
[0D	O-	0r	.	[0F	O-	[0A	O-
=94.	=94.	=94.	=94.	=94.	=94.	=94.	=94.
0D_	.	0r	.	0F_	.	0A]	.
=95.	=95.	=95.	=95.	=95.	=95.	=95.	=95.
0D_	.	0r	.	0F_	.	0A	-san-
=96	=96	=96	=96	=96	=96	=96	=96
0D]	.	0r	.	0F]	.	0B	.
=97.	=97.	=97.	=97.	=97.	=97.	=97.	=97.
[0AA	-san-	0r	.	[0A	-san-	[0c	.
=98.	=98.	=98.	=98.	=98.	=98.	=98.	=98.
0AA]	.	0r	.	0A]	.	0c]	.
=99	=99	=99	=99	=99	=99	=99	=99
0GG	.	0r	.	1.D	.	[0d	.
.	.	.	.	2E	.	.	.
=100.	=100.	=100.	=100.	=100.	=100.	=100.	=100.
[0D	.	0r	.	1F	.	0d]	.
.	.	.	.	1G	.	.	.
=101.	=101.	=101.	=101.	=101.	=101.	=101.	=101.
0D]	.	0r	.	1.A	.	[0f	.
.	.	.	.	4B	.	.	.
.	.	.	.	4c	.	.	.
=102	=102	=102	=102	=102	=102	=102	=102
0D	-na,	0r	.	0d	.	0f]	.
=103.	=103.	=103.	=103.	=103.	=103.	=103.	=103.
0E	.	0r	.	0B	.	[0e	-na,
=104.	=104.	=104.	=104.	=104.	=104.	=104.	=104.
0C	.	0r	.	0c	-na,	0e]	.
=105	=105	=105	=105	=105	=105	=105	=105
[0D	o-	0r	.	[0A	o-	1d	o-
.	.	.	.	.	.	[1f	-san-
=106.	=106.	=106.	=106.	=106.	=106.	=106.	=106.
0D]	.	0r	.	0A]	.	1f]	.
.	.	.	.	.	.	1e	.
=107.	=107.	=107.	=107.	=107.	=107.	=107.	=107.
[0F	-san-	0r	.	[0D	-san-	1.d	.
.	.	.	.	.	.	4c	.
.	.	.	.	.	.	4B	.
=108	=108	=108	=108	=108	=108	=108	=108
0F]	.	0r	.	1D]	.	2.A	.
.	.	.	.	.	.	4B	.
.	.	.	.	1A	.	2c	.
.	.	.	.	.	.	2d	.
=109.	=109.	=109.	=109.	=109.	=109.	=109.	=109.
[0E	.	0r	.	2.G	.	2e	.
.	.	.	.	.	.	2.g	.
.	.	.	.	4A	.	.	.
.	.	.	.	2B	.	.	.
.	.	.	.	.	.	4f	.
.	.	.	.	[2c	.	[2e	.
=110.	=110.	=110.	=110.	=110.	=110.	=110.	=110.
0E]	.	0r	.	2c]	.	4e]	.
.	.	.	.	.	.	4d	.
.	.	.	.	4B	.	2d	.
.	.	.	.	4A	.	.	.
.	.	.	.	2.G	.	1c#i	.
.	.	.	.	4F	.	.	.
=111	=111	=111	=111	=111	=111	=111	=111
[0D	-na,	[0f	O-	[0A	-na,	[0d	-na,
=112.	=112.	=112.	=112.	=112.	=112.	=112.	=112.
0D]	.	0f]	.	0A]	.	0d]	.
=113.	=113.	=113.	=113.	=113.	=113.	=113.	=113.
[0E	o-	[0e	-san-	[0G	o-	[0B	o-
=114	=114	=114	=114	=114	=114	=114	=114
0E]	.	0e_	.	0G]	.	0B]	.
=115.	=115.	=115.	=115.	=115.	=115.	=115.	=115.
[0AA	-san-	0e_	.	[0A	-san-	[0c	-san-
=116.	=116.	=116.	=116.	=116.	=116.	=116.	=116.
0AA]	.	0e]	.	0A]	.	0c]	.
=117	=117	=117	=117	=117	=117	=117	=117
[0A	.	[0d	-na	[0D	-na	1.d	.
.	.	.	.	.	.	2e	.
=118.	=118.	=118.	=118.	=118.	=118.	=118.	=118.
0A]	.	0d]	.	0D_	.	1f	.
.	.	.	.	.	.	1g	.
=119.	=119.	=119.	=119.	=119.	=119.	=119.	=119.
0F	-na	0d	in	0D]	.	0a	-na
=120	=120	=120	=120	=120	=120	=120	=120
0G	in	0B	.	1r	.	0d	in
.	.	.	.	[1d	in	.	.
=121.	=121.	=121.	=121.	=121.	=121.	=121.	=121.
1D	ex-	0A	.	1d]	.	[0a	.
[1A	-cel-	.	.	[1c	.	.	.
=122.	=122.	=122.	=122.	=122.	=122.	=122.	=122.
2A]	.	0e	ex-	1c]	.	1a]	.
2G	.	.	.	.	.	.	.
1E	.	.	.	1B	ex-	1g	ex-
=123	=123	=123	=123	=123	=123	=123	=123
1F	.	0d	-cel-	0A	-cel-	1a	-cel-
1D	.	.	.	.	.	1f	.
=124.	=124.	=124.	=124.	=124.	=124.	=124.	=124.
1E	-sis,	0c	.	1G	.	0e	.
1AA	.	.	.	1A	.	.	.
=125.	=125.	=125.	=125.	=125.	=125.	=125.	=125.
1r	.	0d	.	0F	-sis,	[0A	-sis,
[1D	in	.	.	.	.	.	.
=126	=126	=126	=126	=126	=126	=126	=126
1D]	.	0e	-sis,	0E	.	0A_	.
1C	ex-	.	.	.	.	.	.
=127.	=127.	=127.	=127.	=127.	=127.	=127.	=127.
1D	-cel-	0d	in	1F	in	0A_	.
[1F	.	.	.	[1D	.	.	.
=128.	=128.	=128.	=128.	=128.	=128.	=128.	=128.
2F]	.	0f	ex-	2D]	.	0A]	.
2E	.	.	.	2E	.	.	.
1D	.	.	.	1F	ex-	.	.
=129	=129	=129	=129	=129	=129	=129	=129
1E	.	[0e	-cel-	1G	-cel-	1r	.
[1AA	.	.	.	2F	.	[1c	in
.	.	.	.	[2A	.	.	.
=130.	=130.	=130.	=130.	=130.	=130.	=130.	=130.
2AA]	.	0e]	.	2A]	.	2c]	.
2BB	.	.	.	4G	.	2d	.
.	.	.	.	4F	.	.	.
1C	.	.	.	2E	.	1e	ex-
.	.	.	.	[2A	.	.	.
=131.	=131.	=131.	=131.	=131.	=131.	=131.	=131.
1D	-sis,	[0A	-sis,	2A]	.	2f	-cel-
.	.	.	.	4G	.	2d	.
.	.	.	.	4F	.	.	.
1AA	.	.	.	1E	.	2e	.
.	.	.	.	.	.	2c	.
=132	=132	=132	=132	=132	=132	=132	=132
1r	.	0A]	.	2D	.	2d	.
.	.	.	.	2C	.	2e	.
[1D	ex-	.	.	2D	.	2f	.
.	.	.	.	[2F	-sis,	2d	.
=133.	=133.	=133.	=133.	=133.	=133.	=133.	=133.
2D]	.	[0d	in	2F]	.	2f	.
2E	.	.	.	2E	.	2g	.
1F	-cel-	.	.	1D	.	1a	.
=134.	=134.	=134.	=134.	=134.	=134.	=134.	=134.
!	!	!	!	!	!	!LO:TX:X=-5:Z=26:t=MS&colon; f'	!
1G	-sis,	0d]	.	1r	.	2g	.
.	.	.	.	.	.	2b-i	.
1D	.	.	.	1F	in	2a	.
.	.	.	.	.	.	[2f	.
=135	=135	=135	=135	=135	=135	=135	=135
1r	.	0A	ex-	1E	.	4f]	.
.	.	.	.	.	.	4g	.
.	.	.	.	.	.	2a	.
1D	in	.	.	1F	ex-	2d	.
.	.	.	.	.	.	2f	.
=136.	=136.	=136.	=136.	=136.	=136.	=136.	=136.
1E	.	0G	-cel-	1C	-cel-	2e	.
.	.	.	.	.	.	2.c	.
1C	ex-	.	.	1E	.	.	.
.	.	.	.	.	.	4d	.
.	.	.	.	.	.	2e	.
=137.	=137.	=137.	=137.	=137.	=137.	=137.	=137.
1D	-cel-	0D	.	1F	.	2A	.
.	.	.	.	.	.	2.d	.
1BB-	.	.	.	2G	.	.	.
.	.	.	.	.	.	4e	.
.	.	.	.	2F	.	2f	.
=138	=138	=138	=138	=138	=138	=138	=138
0AA	.	0E	.	0A	.	4g	.
.	.	.	.	.	.	4f	.
.	.	.	.	.	.	4e	.
.	.	.	.	.	.	4d	.
.	.	.	.	.	.	2.c#i	.
.	.	.	.	.	.	4B	.
=139.	=139.	=139.	=139.	=139.	=139.	=139.	=139.
[0BB-i	-sis,	[0Dl	-sis.	1.F	.	0d	-sis,
.	.	.	.	2D	.	.	.
=140.	=140.	=140.	=140.	=140.	=140.	=140.	=140.
1BB-]	.	0D_	.	1D	.	[0B-i	.
1GG	.	.	.	[1G	-sis,	.	.
=141	=141	=141	=141	=141	=141	=141	=141
0GG	ex-	0D_	.	1G]	.	0B-]	.
.	.	.	.	[1d	in	.	.
=142.	=142.	=142.	=142.	=142.	=142.	=142.	=142.
0r	.	0D_	.	2d]	.	1A	ex-
.	.	.	.	2c	.	.	.
.	.	.	.	1B-	ex-	[1d	-cel-
=143.	=143.	=143.	=143.	=143.	=143.	=143.	=143.
0D	-cel-	0D_	.	1A	-cel-	2d]	.
.	.	.	.	.	.	2c	.
.	.	.	.	1G	.	2B-i	.
.	.	.	.	.	.	2A	.
=144	=144	=144	=144	=144	=144	=144	=144
0Dl	-sis.	0D]	.	0F#l	-sis.	0Al	-sis.
!!LO:LB:i:g=z
=145||	=145||	=145||	=145||	=145||	=145||	=145||	=145||
*>D	*>D	*>D	*>D	*>D	*>D	*>D	*>D
*clefF4	*	*clefGv2	*	*clefGv2	*	*clefG2	*
*k[]	*	*k[]	*	*k[]	*	*k[]	*
*M3/1	*	*M3/1	*	*M3/1	*	*M3/1	*
*met(C3)	*	*met(C3)	*	*met(C3)	*	*met(C3)	*
*MM450	*	*MM450	*	*MM450	*	*MM450	*
!!section: Benedictus
!!!OMD: Benedictus
!	!	!	!	!	!	!LO:TX:X=-40:Z=8:t=3-ex-1 canon	!
0.r	.	0.r	.	0.r	.	0d	Be-
.	.	.	.	.	.	1d	-ne-
=146.	=146.	=146.	=146.	=146.	=146.	=146.	=146
0D	Be-	0.r	.	0.r	.	1.f	-dic-
.	.	.	.	.	.	2e	.
1D	-ne-	.	.	.	.	1d	.
=147.	=147.	=147.	=147.	=147.	=147.	=147.	=147
1.F	-dic-	0.r	.	0A	Be-	1c	.
.	.	.	.	.	.	1.f	.
2E	.	.	.	.	.	.	.
1D	.	.	.	1A	-ne-	.	.
.	.	.	.	.	.	2e	.
=148	=148	=148	=148	=148	=148	=148	=148
1C	.	0.r	.	1.c	-dic-	1e	.
1.F	.	.	.	.	.	1c	.
.	.	.	.	2B	.	.	.
.	.	.	.	1A	.	1d	.
2E	.	.	.	.	.	.	.
=149.	=149.	=149.	=149.	=149.	=149.	=149.	=149
1E	.	0.r	.	1G	.	0e	.
1C	.	.	.	1.c	.	.	.
1D	.	.	.	.	.	1f	.
.	.	.	.	2B	.	.	.
=150.	=150.	=150.	=150.	=150.	=150.	=150.	=150
0E	.	0.r	.	1B	.	0g	.
.	.	.	.	1G	.	.	.
1F	.	.	.	1A	.	2f	.
.	.	.	.	.	.	2e	.
=151	=151	=151	=151	=151	=151	=151	=151
0G	.	0.r	.	0B	.	1d	-tus,
.	.	.	.	.	.	1r	.
2F	.	.	.	1c	.	1r	.
2E	.	.	.	.	.	.	.
=152.	=152.	=152.	=152.	=152.	=152.	=152.	=152
1D	-tus,	0.r	.	0d	-tus,	1.d	be-
1r	.	.	.	.	.	.	.
.	.	.	.	.	.	2f	.
1r	.	.	.	2c	.	1e	-ne
.	.	.	.	2B	.	.	.
=153.	=153.	=153.	=153.	=153.	=153.	=153.	=153
1.D	be-	0.r	.	1A	.	1d	dic-
.	.	.	.	1r	.	1f	.
2F	.	.	.	.	.	.	.
1E	-ne	.	.	1r	.	1g	.
=154	=154	=154	=154	=154	=154	=154	=154
1D	dic-	0.r	.	1.A	be-	0a	.
1F	.	.	.	.	.	.	.
.	.	.	.	2c	.	.	.
1G	.	.	.	1B	-ne	1b	.
=155.	=155.	=155.	=155.	=155.	=155.	=155.	=155
0A	.	0.r	.	1A	dic-	0cc	.
.	.	.	.	1c	.	.	.
1B	.	.	.	1d	.	2b	.
.	.	.	.	.	.	2a	.
=156.	=156.	=156.	=156.	=156.	=156.	=156.	=156
0c	.	0.r	.	0e	.	0g	.
2B	.	.	.	1f	.	1a	.
2A	.	.	.	.	.	.	.
=157	=157	=157	=157	=157	=157	=157	=157
0G	.	0.r	.	0g	.	0b-i	.
1A	.	.	.	2f	.	2a	.
.	.	.	.	2e	.	2g	.
=158.	=158.	=158.	=158.	=158.	=158.	=158.	=158
0B-	.	0.r	.	0d	.	0f	.
2A	.	.	.	1e	.	1g	.
2G	.	.	.	.	.	.	.
=159.	=159.	=159.	=159.	=159.	=159.	=159.	=159
0F	.	0.r	.	0f	.	0a	.
1G	.	.	.	2e	.	2g	.
.	.	.	.	2d	.	2f	.
=160	=160	=160	=160	=160	=160	=160	=160
0A	.	0.r	.	0c	.	0e	.
2G	.	.	.	1d	.	1A	.
2F	.	.	.	.	.	.	.
=161.	=161.	=161.	=161.	=161.	=161.	=161.	=161
0E	.	0.r	.	0e	.	1B	-tus,
.	.	.	.	.	.	1G	.
1AA	.	.	.	2d	.	1A	.
.	.	.	.	2c	.	.	.
=162.	=162.	=162.	=162.	=162.	=162.	=162.	=162
1BB	-tus,	0.r	.	0B	.	1r	.
1GG	.	.	.	.	.	1B	qui
1AA	.	.	.	1E	.	1c	.
=163	=163	=163	=163	=163	=163	=163	=163
1r	.	0.r	.	1F	-tus,	1A	.
1BB	qui-	.	.	1D	.	1r	.
1C	.	.	.	1E	.	1G	ve-
=164.	=164.	=164.	=164.	=164.	=164.	=164.	=164
1AA	.	0.r	.	1r	.	1A	.
1r	.	.	.	1F	qui-	1c	.
1GG	-ve-	.	.	1G	.	1B	.
=165.	=165.	=165.	=165.	=165.	=165.	=165.	=165
1AA	.	0.r	.	1E	.	1A	-nit,
1C	.	.	.	1r	.	1G	.
1BB	.	.	.	1D	-ve-	1r	.
=166	=166	=166	=166	=166	=166	=166	=166
1AA	-nit,	0.r	.	1E	.	1A	qui-
1GG	.	.	.	1G	.	1B	.
1r	.	.	.	1F	.	1A	.
=167.	=167.	=167.	=167.	=167.	=167.	=167.	=167
1AA	qui-	0.r	.	1E	-nit,	1c	-ve-
1BB	.	.	.	1D	.	1d	.
1AA	.	.	.	1r	.	[1e	.
=168.	=168.	=168.	=168.	=168.	=168.	=168.	=168
1C	-ve-	0.r	.	1E	qui-	1e]	.
1D	.	.	.	1F	.	1A	-nit,
[1E	.	.	.	1E	.	1r	.
=169	=169	=169	=169	=169	=169	=169	=169
1E]	.	0.r	.	1G	-ve-	0e	qui-
1AA	-nit,	.	.	1A	.	.	.
1r	.	.	.	[1B	.	1d	.
=170.	=170.	=170.	=170.	=170.	=170.	=170.	=170
0E	qui-	0.r	.	1B]	.	0g	-ve-
.	.	.	.	1E	-nit,	.	.
1D	.	.	.	1r	.	1f	.
=171.	=171.	=171.	=171.	=171.	=171.	=171.	=171
0G	-ve-	0.r	.	0B	qui-	1.d	.
.	.	.	.	.	.	2e	.
1F	.	.	.	1A	.	2f	.
.	.	.	.	.	.	2g	.
=172	=172	=172	=172	=172	=172	=172	=172
1.D	.	0.r	.	0d	-ve-	1a	.
.	.	.	.	.	.	1d	.
2E	.	.	.	.	.	.	.
2F	.	.	.	1c	.	[1a	.
2G	.	.	.	.	.	.	.
=173.	=173.	=173.	=173.	=173.	=173.	=173.	=173
1A	.	0.r	.	1.A	.	1a]	.
1D	.	.	.	.	.	1f	.
.	.	.	.	2B	.	.	.
[1A	.	.	.	2c	.	1e	.
.	.	.	.	2d	.	.	.
=174.	=174.	=174.	=174.	=174.	=174.	=174.	=174
1A]	.	0.r	.	1e	.	0a	.
1F	.	.	.	1A	.	.	.
1E	.	.	.	[1e	.	1g	.
=175	=175	=175	=175	=175	=175	=175	=175
0A	.	0.r	.	1e]	.	1a	-nit,
.	.	.	.	1c	.	1e	.
1G	.	.	.	1B	.	1r	.
=176.	=176.	=176.	=176.	=176.	=176.	=176.	=176
1A	-nit,	0.r	.	0e	.	1a	qui
1E	.	.	.	.	.	1g	.
1r	.	.	.	1d	.	1f	.
=177.	=177.	=177.	=177.	=177.	=177.	=177.	=177
1A	qui-	0.r	.	1e	-nit,	1e	.
1G	.	.	.	1B	.	1r	.
1F	.	.	.	1r	.	1a	ve-
=178	=178	=178	=178	=178	=178	=178	=178
1E	.	0.r	.	1e	qui-	2g	.
.	.	.	.	.	.	2e	.
1r	.	.	.	1d	.	2.f	.
.	.	.	.	.	.	4g	.
1A	-ve-	.	.	1c	.	1e	-nit,
=179.	=179.	=179.	=179.	=179.	=179.	=179.	=179
2G	.	0.r	.	1B	.	1r	.
2E	.	.	.	.	.	.	.
2.F	.	.	.	1r	.	1a	qui-
4G	.	.	.	.	.	.	.
1E	-nit,	.	.	1e	-ve-	2g	-ve-
.	.	.	.	.	.	2e	.
=180.	=180.	=180.	=180.	=180.	=180.	=180.	=180
1r	.	0.r	.	2d	.	2.f	.
.	.	.	.	2B	.	.	.
.	.	.	.	.	.	4g	.
1A	qui-	.	.	2.c	.	2e	.
.	.	.	.	.	.	2f	.
.	.	.	.	4d	.	.	.
2G	-ve-	.	.	1B	-nit,	1g	.
2E	.	.	.	.	.	.	.
=181	=181	=181	=181	=181	=181	=181	=181
2.F	.	0.r	.	1r	.	1c	-nit,
4G	.	.	.	.	.	.	.
2E	.	.	.	1e	qui-	1r	.
2F	.	.	.	.	.	.	.
1G	.	.	.	2d	-ve-	1r	.
.	.	.	.	2B	.	.	.
=182.	=182.	=182.	=182.	=182.	=182.	=182.	=182
1C	-nit,	0.r	.	2.c	.	1e	qui-
.	.	.	.	4d	.	.	.
1r	.	.	.	2B	.	2d	-ve-
.	.	.	.	2c	.	2e	.
1r	.	.	.	1d	.	2.f	.
.	.	.	.	.	.	4g	.
=183.	=183.	=183.	=183.	=183.	=183.	=183.	=183
1E	qui-	0.r	.	1G	-nit,	2e	.
.	.	.	.	.	.	2g	.
2D	-ve-	.	.	1r	.	2f	.
2E	.	.	.	.	.	4e	.
.	.	.	.	.	.	4d	.
2.F	.	.	.	1r	.	1c	-nit,
4G	.	.	.	.	.	.	.
=184	=184	=184	=184	=184	=184	=184	=184
2E	.	0.r	.	1B	qui	1r	.
2G	.	.	.	.	.	.	.
2F	.	.	.	2A	ve-	1f	qui
4E	.	.	.	2B	.	.	.
4D	.	.	.	.	.	.	.
1C	-nit,	.	.	2.c	.	2e	ve-
.	.	.	.	.	.	2c	.
.	.	.	.	4d	.	.	.
=185.	=185.	=185.	=185.	=185.	=185.	=185.	=185
1r	.	0.r	.	2B	.	2d	.
.	.	.	.	2d	.	2B	.
1F	qui-	.	.	2c	.	2c	.
.	.	.	.	4B	.	2d	.
.	.	.	.	4A	.	.	.
2E	-ve-	.	.	1G	-nit,	1e	.
2C	.	.	.	.	.	.	.
=186.	=186.	=186.	=186.	=186.	=186.	=186.	=186
2D	.	0.r	.	1r	.	1d	-nit
2BB	.	.	.	.	.	.	.
2C	.	.	.	1c	qui-	1G	.
2D	.	.	.	.	.	.	.
1E	.	.	.	2B	-ve-	1r	.
.	.	.	.	2G	.	.	.
=187	=187	=187	=187	=187	=187	=187	=187
1D	-nit,	0.r	.	2A	.	[0.d	in
.	.	.	.	2F	.	.	.
1GG	.	.	.	2G	.	.	.
.	.	.	.	2A	.	.	.
1r	.	.	.	1B-i	.	.	.
=188.	=188.	=188.	=188.	=188.	=188.	=188.	=188
[0.D	in	0.r	.	1A	-nit,	0.d_	.
.	.	.	.	1D	.	.	.
.	.	.	.	1r	.	.	.
=189.	=189.	=189.	=189.	=189.	=189.	=189.	=189
0.D_	.	0.r	.	[0.A	in	0.d_	.
=190	=190	=190	=190	=190	=190	=190	=190
0.D_	.	0.r	.	0.A_	.	0.d]	.
=191.	=191.	=191.	=191.	=191.	=191.	=191.	=191
0.D]	.	0.r	.	0.A_	.	1.f	no-
.	.	.	.	.	.	2e	.
.	.	.	.	.	.	2.d	.
.	.	.	.	.	.	4e	.
=192.	=192.	=192.	=192.	=192.	=192.	=192.	=192
1.F	no-	0.r	.	0.A]	.	0c	.
2E	.	.	.	.	.	.	.
2.D	.	.	.	.	.	1f	-mi-
4E	.	.	.	.	.	.	.
=193	=193	=193	=193	=193	=193	=193	=193
0C	.	0.r	.	1.c	no-	1e	-ne
.	.	.	.	.	.	1c	.
.	.	.	.	2B	.	.	.
1F	-mi-	.	.	2.A	.	1r	.
.	.	.	.	4B	.	.	.
=194.	=194.	=194.	=194.	=194.	=194.	=194.	=194
1E	-ne	0.r	.	0G	.	1.g	do-
1C	.	.	.	.	.	.	.
.	.	.	.	.	.	2f	.
1r	.	.	.	1c	-mi-	2e	.
.	.	.	.	.	.	2d	.
=195.	=195.	=195.	=195.	=195.	=195.	=195.	=195
1.G	do-	0.r	.	1B	-ne	1d	.
.	.	.	.	1G	.	1B	.
2F	.	.	.	.	.	.	.
2E	.	.	.	1r	.	1G	.
2D	.	.	.	.	.	.	.
=196	=196	=196	=196	=196	=196	=196	=196
1D	.	0.r	.	1.d	do-	1A	.
1BB	.	.	.	.	.	0d	.
.	.	.	.	2c	.	.	.
1GG	.	.	.	2B	.	.	.
.	.	.	.	2A	.	.	.
=197.	=197.	=197.	=197.	=197.	=197.	=197.	=197
1AA	.	0.r	.	1A	.	1c	-mi-
0D	.	.	.	1F	.	1d	.
.	.	.	.	1D	.	1f	.
=198.	=198.	=198.	=198.	=198.	=198.	=198.	=198
1C	-mi-	0.r	.	1E	.	1e	-ni,
1D	.	.	.	0A	.	1d	.
1F	.	.	.	.	.	1c	.
=199	=199	=199	=199	=199	=199	=199	=199
1E	-ni,	0.r	.	1G	-mi-	1r	.
1D	.	.	.	1A	.	1f	in
1C	.	.	.	1c	.	2e	no-
.	.	.	.	.	.	2c	.
=200.	=200.	=200.	=200.	=200.	=200.	=200.	=200
1r	.	0.r	.	1B	-ni,	1d	.
1F	in	.	.	1A	.	1c	.
2E	no-	.	.	1G	.	1e	-mi-
2C	.	.	.	.	.	.	.
=201.	=201.	=201.	=201.	=201.	=201.	=201.	=201
1D	.	0.r	.	1r	.	1f	-ne
1C	.	.	.	1c	in	0g	.
1E	-mi-	.	.	2B	no-	.	.
.	.	.	.	2G	.	.	.
=202	=202	=202	=202	=202	=202	=202	=202
1F	-ne	0.r	.	1A	.	1f	do-
0G	.	.	.	1G	.	1.d	.
.	.	.	.	1B	-mi-	.	.
.	.	.	.	.	.	2e	.
=203.	=203.	=203.	=203.	=203.	=203.	=203.	=203
1F	do-	0.r	.	1c	-ne	[0.f	.
1.D	.	.	.	0d	.	.	.
2E	.	.	.	.	.	.	.
=204.	=204.	=204.	=204.	=204.	=204.	=204.	=204
[0.F	.	0.r	.	1c	do-	0f]	.
.	.	.	.	1.A	.	.	.
.	.	.	.	.	.	2e	.
.	.	.	.	2B	.	2d	.
=205	=205	=205	=205	=205	=205	=205	=205
0F]	.	0.r	.	[0.c	.	1.c	.
.	.	.	.	.	.	2d	.
2E	.	.	.	.	.	2e	.
2D	.	.	.	.	.	2f	.
=206.	=206.	=206.	=206.	=206.	=206.	=206.	=206
1.C	.	0.r	.	0c]	.	[0.g	.
2D	.	.	.	.	.	.	.
2E	.	.	.	2B	.	.	.
2F	.	.	.	2A	.	.	.
=207.	=207.	=207.	=207.	=207.	=207.	=207.	=207
[0.G	.	0.r	.	1.G	.	0g]	.
.	.	.	.	2A	.	.	.
.	.	.	.	2B	.	2f	.
.	.	.	.	2c	.	2e	.
=208	=208	=208	=208	=208	=208	=208	=208
0G]	.	0.r	.	[0.d	.	1.d	.
.	.	.	.	.	.	2e	.
2F	.	.	.	.	.	2f	.
2E	.	.	.	.	.	2g	.
=209.	=209.	=209.	=209.	=209.	=209.	=209.	=209
1.D	.	0.r	.	0d]	.	[0.a	.
2E	.	.	.	.	.	.	.
2F	.	.	.	2c	.	.	.
2G	.	.	.	2B	.	.	.
=210.	=210.	=210.	=210.	=210.	=210.	=210.	=210
[0.A	.	0.r	.	1.A	.	0a]	.
.	.	.	.	2B	.	.	.
.	.	.	.	2c	.	2g	-mi-
.	.	.	.	2d	.	2f	.
=211	=211	=211	=211	=211	=211	=211	=211
0A]	.	0.r	.	[0.e	.	1e	-ni,
.	.	.	.	.	.	1r	.
2G	-mi-	.	.	.	.	1A	do-
2F	.	.	.	.	.	.	.
=212.	=212.	=212.	=212.	=212.	=212.	=212.	=212
1E	-ni,	0.r	.	0e]	.	1B	.
1r	.	.	.	.	.	1A	.
1AA	do-	.	.	2d	-mi-	1c	.
.	.	.	.	2c	.	.	.
=213.	=213.	=213.	=213.	=213.	=213.	=213.	=213
1BB	.	0.r	.	1B	-ni,	1d	.
1AA	.	.	.	1r	.	1.e	.
1C	.	.	.	1E	do-	.	.
.	.	.	.	.	.	2d	.
=214	=214	=214	=214	=214	=214	=214	=214
1D	.	0.r	.	1F	.	1d	.
1.E	.	.	.	1E	.	1B	.
.	.	.	.	1G	.	1c#i	-mi-
2D	.	.	.	.	.	.	.
=215.	=215.	=215.	=215.	=215.	=215.	=215.	=215
1D	.	0.r	.	1A	.	[0.dl	-ni.
1BB-i	.	.	.	1.B-i	.	.	.
1C	-mi-	.	.	.	.	.	.
.	.	.	.	2A	.	.	.
=216.	=216.	=216.	=216.	=216.	=216.	=216.	=216
[0.Dl	-ni.	0.r	.	1A	.	0.d_	.
.	.	.	.	1F	.	.	.
.	.	.	.	1G	-mi-	.	.
=217	=217	=217	=217	=217	=217	=217	=217
0.D]	.	0.r	.	0.Al	-ni.	0.d]	.
!!LO:LB:i:g=z
=218||	=218||	=218||	=218||	=218||	=218||	=218||	=218||
*>E	*>E	*>E	*>E	*>E	*>E	*>E	*>E
*clefF4	*	*clefGv2	*	*clefGv2	*	*clefG2	*
*k[]	*	*k[]	*	*k[]	*	*k[]	*
*M3/1	*	*M3/1	*	*M3/1	*	*M3/1	*
*met(O)	*	*met(O)	*	*met(O)	*	*met(O)	*
*MM300	*	*MM300	*	*MM300	*	*MM300	*
!!section: Osanna II
!!!OMD: Osanna II
!	!	!LO:TX:X=-40:Z=12:t=T omits rests	!	!	!	!	!
1r	.	1A	O-	0e	O-	[0.a	O-
1r	.	1c	.	.	.	.	.
1D	O-	1d	-san-	1f	.	.	.
=219	=219	=219	=219	=219	=219	=219	=219
1AA	-san-	1c	.	1e	-san-	0.a]	.
1D	.	2d	.	1.A	.	.	.
.	.	2f	.	.	.	.	.
2C	.	2e	.	.	.	.	.
2D	.	2d	.	[2f	.	.	.
=220	=220	=220	=220	=220	=220	=220	=220
2F	.	1A	na,	2f]	.	0.a	-san-
2G	.	.	.	1e	.	.	.
1A	.	1c	o-	.	.	.	.
.	.	.	.	2.A	.	.	.
1D	-na,	1d	-san-	.	.	.	.
.	.	.	.	4G	.	.	.
.	.	.	.	2F	.	.	.
=221	=221	=221	=221	=221	=221	=221	=221
2r	.	1e	.	2E	-na,	[0.g	.
1.G	o-	.	.	2C	.	.	.
.	.	1d	.	2r	.	.	.
.	.	.	.	2G	o-	.	.
1C	.	1c	.	2E	-san-	.	.
.	.	.	.	2F	.	.	.
=222	=222	=222	=222	=222	=222	=222	=222
1r	.	0.B-i	.	1G	-na,	0.g]	.
1G	-san-	.	.	1r	.	.	.
[1D	.	.	.	1d	o-	.	.
=223	=223	=223	=223	=223	=223	=223	=223
0D]	.	0.A	-na,	1d	-san-	0.f	-na,
.	.	.	.	2A	.	.	.
.	.	.	.	2d	.	.	.
2AA	.	.	.	2c	.	.	.
[2D	.	.	.	2d	.	.	.
=224	=224	=224	=224	=224	=224	=224	=224
4D]	.	0.D	o-	1.A	.	0.f	o-
4E	.	.	.	.	.	.	.
2.F	.	.	.	.	.	.	.
4G	.	.	.	.	.	.	.
4A	.	.	.	2F	.	.	.
4D	.	.	.	.	.	.	.
2A	.	.	.	2A	-na,	.	.
2B-i	.	.	.	2D	.	.	.
=225	=225	=225	=225	=225	=225	=225	=225
1.G	.	1d	-san-	2r	.	1.g	-san-
.	.	.	.	2.B	o-	.	.
.	.	0e	.	.	.	.	.
.	.	.	.	4c	.	.	.
2F	.	.	.	2A	.	2a	.
1E	.	.	.	2B	.	2g	.
.	.	.	.	2c	.	4f	.
.	.	.	.	.	.	4e	.
=226	=226	=226	=226	=226	=226	=226	=226
0D	-na,	0.A	-na,	1.d	-san-	2f	.
.	.	.	.	.	.	2g	.
.	.	.	.	.	.	1.a	.
.	.	.	.	1f	.	.	.
[1F	.	.	.	.	.	.	.
.	.	.	.	4e	.	2b	.
.	.	.	.	4d	.	.	.
=227	=227	=227	=227	=227	=227	=227	=227
1F]	.	1A	o-	1c	-na,	1cc	.
0D	o-	1d	-sa-	2r	.	2b	.
.	.	.	.	1f	o-	2.a	.
.	.	1A	.	.	.	.	.
.	.	.	.	.	.	4g	.
.	.	.	.	[2d	.	2f	.
=228	=228	=228	=228	=228	=228	=228	=228
1G	-san-	1B-i	.	2d]	.	4g	.
.	.	.	.	.	.	4f	.
.	.	.	.	1g	-san-	4e	.
.	.	.	.	.	.	4d	.
2A	.	1A	.	.	.	1c	.
1c	.	.	.	2f	.	.	.
.	.	1G	.	2d	.	1g	-na,
2B	.	.	.	2e	.	.	.
=229	=229	=229	=229	=229	=229	=229	=229
2A	.	0.F	-na,	1f	-na,	1a	o-
1c	.	.	.	.	.	.	.
.	.	.	.	1r	.	1f	.
2d	.	.	.	.	.	.	.
2c	.	.	.	1f	o-	1cc	.
[2A	.	.	.	.	.	.	.
=230	=230	=230	=230	=230	=230	=230	=230
2A]	.	0.F	o-	1.f	-san-	2b	-san-
1c	.	.	.	.	.	1a	.
2B	.	.	.	4e	.	2g	.
.	.	.	.	4d	.	.	.
2A	.	.	.	2c	.	2f	.
4G	.	.	.	2d	.	4e	.
4F	.	.	.	.	.	4d	.
=231	=231	=231	=231	=231	=231	=231	=231
2.E	.	0.G	-san-	0e	.	2c	.
.	.	.	.	.	.	2B	.
4D	.	.	.	.	.	.	.
2C	.	.	.	.	.	2c	.
2BB	.	.	.	.	.	2d	.
1C	.	.	.	1c	.	2e	.
.	.	.	.	.	.	4d	.
.	.	.	.	.	.	4e	.
=232	=232	=232	=232	=232	=232	=232	=232
1D	.	1F	.	0A	.	2f	.
.	.	.	.	.	.	1d	.
0AA	-na	0E	.	.	.	.	.
.	.	.	.	.	.	2e	.
.	.	.	.	1A	-na	2.c#i	.
.	.	.	.	.	.	4B	.
=233	=233	=233	=233	=233	=233	=233	=233
2r	.	0.D	-na,	1.F	in	1d	-na
1A	in	.	.	.	.	.	.
.	.	.	.	.	.	1r	.
2G	ex-	.	.	2B-i	ex-	.	.
2F	-cel-	.	.	2A	.	1r	.
2E	.	.	.	2G	.	.	.
=234	=234	=234	=234	=234	=234	=234	=234
0.D	.	0.f	in	1A	-cel-	0a	in
.	.	.	.	0d	.	.	.
.	.	.	.	.	.	1a	ex-
=235	=235	=235	=235	=235	=235	=235	=235
2.E	.	[0.e	ex-	2B	.	2.g	-cel-
.	.	.	.	2c	.	.	.
4F	.	.	.	.	.	4a	.
2G	.	.	.	2B	.	2b	.
1A	.	.	.	2A	.	1cc	.
.	.	.	.	2.e	.	.	.
2G	.	.	.	.	.	[2b	.
.	.	.	.	4d	.	.	.
=236	=236	=236	=236	=236	=236	=236	=236
1A	.	0.e]	.	2c	.	4b]	.
.	.	.	.	.	.	4a	.
.	.	.	.	2A	.	1a	.
1E	.	.	.	1B	.	.	.
.	.	.	.	.	.	2g#i	.
1A	.	.	.	1c	-sis,	1a	-sis.
=237	=237	=237	=237	=237	=237	=237	=237
0.D	-sis,	0d	-cel-	0A	in	2.f	in
.	.	.	.	.	.	4g	.
.	.	.	.	.	.	2a	ex-
.	.	.	.	.	.	2.a	-cel-
.	.	1d	-sis,	1F	ex-	.	.
.	.	.	.	.	.	4g	.
.	.	.	.	.	.	4f	.
.	.	.	.	.	.	4e	.
=238	=238	=238	=238	=238	=238	=238	=238
1r	.	1B	in	2G	-cel-	1.d	.
.	.	.	.	2D	.	.	.
1D	in	1A	ex-	2F	.	.	.
.	.	.	.	2G	.	4c	.
.	.	.	.	.	.	4d	.
1AA	ex-	1e	.	1A	.	2.c	.
.	.	.	.	.	.	4A	.
=239	=239	=239	=239	=239	=239	=239	=239
1.F	-cel-	1d	-cel-	2D	.	1A	-sis,
.	.	.	.	1A	.	.	.
.	.	1c	.	.	.	1r	.
2E	.	.	.	2G	.	.	.
2D	.	1d	.	2F	.	1A	in
4C	.	.	.	4E	.	.	.
4BB	.	.	.	4D	.	.	.
=240	=240	=240	=240	=240	=240	=240	=240
2AA	.	1e	.	2C	.	0A	ex-
2C	.	.	.	2E	.	.	.
2D	.	1d	.	2F	.	.	.
2.F	.	.	.	2.D	.	.	.
.	.	1f	.	.	.	1d	.
4G	.	.	.	4E	.	.	.
[2A	.	.	.	2F	.	.	.
=241	=241	=241	=241	=241	=241	=241	=241
4A]	.	0.e	.	2G	.	1e	-cel-
4B	.	.	.	.	.	.	.
1c	.	.	.	1A	.	.	.
.	.	.	.	.	.	0c	.
1A	.	.	.	4G	.	.	.
.	.	.	.	4F	.	.	.
.	.	.	.	1E	.	.	.
2G	.	.	.	.	.	.	.
=242	=242	=242	=242	=242	=242	=242	=242
2A	.	0.A	-sis,	0D	-sis,	1d	.
2.F	.	.	.	.	.	.	.
.	.	.	.	.	.	1f	.
4E	.	.	.	.	.	.	.
1D	.	.	.	.	.	.	.
.	.	.	.	1E	ex-	1e	.
2C#i	.	.	.	.	.	.	.
=243	=243	=243	=243	=243	=243	=243	=243
0.D	-sis,	0d	in	2F	-cel-	2A	.
.	.	.	.	2G	.	2B	.
.	.	.	.	1A	.	2A	.
.	.	.	.	.	.	2.d	.
.	.	1A	ex-	1d	.	.	.
.	.	.	.	.	.	4e	.
.	.	.	.	.	.	2f	.
=244	=244	=244	=244	=244	=244	=244	=244
2E	in	1G	-cel-	2B	.	2g	.
2C	.	.	.	2c	.	2.e	.
2D	ex-	1D	.	2A	.	.	.
.	.	.	.	.	.	4d	.
2BB	.	.	.	2G	.	1d	.
1AA	.	1E	.	1A	.	.	.
.	.	.	.	.	.	2c#i	.
=245	=245	=245	=245	=245	=245	=245	=245
1r	.	[0.Dl	-sis.	[0.Al	-sis.	[0.dl	-sis.
1r	.	.	.	.	.	.	.
1D	-cel-	.	.	.	.	.	.
=246	=246	=246	=246	=246	=246	=246	=246
0.Dl	-sis.	0.D]	.	0.A]	.	0.d]	.
==	==	==	==	==	==	==	==
*-	*-	*-	*-	*-	*-	*-	*-
!!!RDF**kern: l=long note in original notation
!!!RDF**kern: i=editorial accidental
!!!ENC: Jesse Rodin and Emily Zazulia
!!!END: 2019/01/10/
!!!EED: Jesse Rodin & Emily Zazulia
!!!EEV: 2019/01/12/
!!!ONB: Translated from MusicXML and edited on 2019/01/12/ by Craig Sapp
!!muse2ps: T^@{OPR}^u^@{ONM}{. }@{OTL}^C^@{SMS}, @{folio-OPR}\nEd. @{EED}^v90,90,90,130i2c100z18l2650
